src/assets/img/GramCoin.svg

<svg width="21" height="24" viewBox="0 0 21 24" fill="none" xmlns="http://www.w3.org/2000/svg">
<path d="M10.5011 0.192017L20.8102 6.14402V18.048L10.5011 24L0.191895 18.048V6.14402L10.5011 0.192017Z" fill="url(#paint0_linear_2091_292)"/>
<path d="M10.49 1.34399L10.4899 11.904L1.34424 6.62399L10.49 1.34399Z" fill="#625A65"/>
<path d="M10.49 11.904L1.34424 17.184V6.62402L10.49 11.904Z" fill="#291D29"/>
<path d="M10.49 11.9039L10.4899 22.4639L1.34424 17.1839L10.49 11.9039Z" fill="#201D28"/>
<path d="M10.4897 1.34399L19.6355 6.62399L10.4897 11.904V1.34399Z" fill="#756370"/>
<path d="M10.4897 11.9039L19.6355 17.1839L10.4897 22.4639V11.9039Z" fill="#352331"/>
<path d="M10.4897 11.904L19.6355 6.62402V17.184L10.4897 11.904Z" fill="#413543"/>
<path d="M10.4716 0.591872L10.9651 0.876562L19.8579 6.01138L20.3514 6.29607V17.7045L19.8579 17.9891L10.9651 23.124L10.4716 23.4087L9.97867 23.124L1.08537 17.9891L0.591872 17.7045V6.29607L1.08537 6.01138L9.97867 0.876562L10.4716 0.591872ZM10.4716 0C10.3678 9.68358e-05 10.2658 0.0275324 10.176 0.0795458L9.68248 0.364229L0.789165 5.49853L0.296201 5.78322C0.206171 5.8352 0.131404 5.90995 0.0794116 5.99997C0.0274193 6.08999 3.12962e-05 6.19211 0 6.29607V17.7045C3.12962e-05 17.8084 0.0274193 17.9105 0.0794116 18.0006C0.131404 18.0906 0.206171 18.1653 0.296201 18.2173L0.789165 18.502L9.68091 23.6358L10.1744 23.9205C10.2643 23.9726 10.3664 24 10.4703 24C10.5743 24 10.6763 23.9726 10.7663 23.9205L11.2592 23.6358L20.1541 18.5041L20.6471 18.2194C20.7371 18.1674 20.8119 18.0927 20.8639 18.0027C20.9159 17.9126 20.9433 17.8105 20.9433 17.7066V6.29816C20.9433 6.1942 20.9159 6.09209 20.8639 6.00206C20.8119 5.91204 20.7371 5.83728 20.6471 5.78531L20.1541 5.50062L11.2608 0.366324L10.7678 0.0816347C10.6778 0.0296243 10.5756 0.0021923 10.4716 0.00208894V0Z" fill="#441F00"/>
<path d="M10.5345 1.87431L10.9766 2.12939L18.9446 6.73019L19.3867 6.98527V17.2072L18.9446 17.4623L10.9766 22.0631L10.5345 22.3181L10.0927 22.0631L2.12434 17.4623L1.68217 17.2072V6.98527L2.12434 6.73019L10.0927 2.12939L10.5345 1.87431ZM10.5345 1.34399C10.4414 1.34408 10.35 1.36866 10.2695 1.41527L9.82736 1.67034L1.85895 6.27067L1.41725 6.52576C1.33659 6.57233 1.26959 6.63931 1.22301 6.71997C1.17642 6.80063 1.15188 6.89212 1.15186 6.98527V17.2072C1.15188 17.3003 1.17642 17.3918 1.22301 17.4725C1.26959 17.5532 1.33659 17.6201 1.41725 17.6667L1.85895 17.9218L9.82595 22.5217L10.2681 22.7767C10.3487 22.8234 10.4402 22.848 10.5333 22.848C10.6264 22.848 10.7179 22.8234 10.7984 22.7767L11.2401 22.5217L19.21 17.9237L19.6517 17.6686C19.7323 17.622 19.7993 17.555 19.8459 17.4744C19.8925 17.3937 19.917 17.3022 19.917 17.2091V6.98715C19.917 6.894 19.8925 6.8025 19.8459 6.72184C19.7993 6.64118 19.7323 6.5742 19.6517 6.52763L19.21 6.27255L11.2415 1.67222L10.7998 1.41714C10.7192 1.37054 10.6276 1.34596 10.5345 1.34587V1.34399Z" fill="#441F00"/>
<mask id="path-10-outside-1_2091_292" maskUnits="userSpaceOnUse" x="3.60742" y="7.06396" width="14" height="14" fill="black">
<rect fill="white" x="3.60742" y="7.06396" width="14" height="14"/>
<path fill-rule="evenodd" clip-rule="evenodd" d="M16.3194 8.06396L10.4634 19.584L4.60742 8.06396H16.3194ZM9.98346 9.06569V16.5787L6.52746 9.06569H9.98346ZM10.9435 9.06569V16.5787L14.3995 9.06569H10.9435Z"/>
</mask>
<path fill-rule="evenodd" clip-rule="evenodd" d="M16.3194 8.06396L10.4634 19.584L4.60742 8.06396H16.3194ZM9.98346 9.06569V16.5787L6.52746 9.06569H9.98346ZM10.9435 9.06569V16.5787L14.3995 9.06569H10.9435Z" fill="url(#paint1_linear_2091_292)"/>
<path d="M10.4634 19.584L10.0177 19.8105C10.103 19.9783 10.2752 20.084 10.4634 20.084C10.6516 20.084 10.8239 19.9783 10.9091 19.8105L10.4634 19.584ZM16.3194 8.06396L16.7651 8.29054C16.8439 8.13554 16.8365 7.95073 16.7456 7.80251C16.6547 7.6543 16.4933 7.56396 16.3194 7.56396V8.06396ZM4.60742 8.06396V7.56396C4.43354 7.56396 4.27215 7.6543 4.18123 7.80251C4.0903 7.95073 4.08291 8.13554 4.1617 8.29054L4.60742 8.06396ZM9.98346 16.5787L9.52922 16.7877C9.6274 17.0011 9.86092 17.1174 10.0904 17.0672C10.3199 17.0169 10.4835 16.8137 10.4835 16.5787H9.98346ZM9.98346 9.06569H10.4835C10.4835 8.78955 10.2596 8.56569 9.98346 8.56569V9.06569ZM6.52746 9.06569V8.56569C6.35706 8.56569 6.19839 8.65247 6.10647 8.79594C6.01454 8.93942 6.00201 9.11983 6.07322 9.27464L6.52746 9.06569ZM10.9435 16.5787H10.4435C10.4435 16.8137 10.607 17.0169 10.8365 17.0672C11.066 17.1174 11.2995 17.0011 11.3977 16.7877L10.9435 16.5787ZM10.9435 9.06569V8.56569C10.6673 8.56569 10.4435 8.78955 10.4435 9.06569H10.9435ZM14.3995 9.06569L14.8537 9.27464C14.9249 9.11983 14.9124 8.93942 14.8205 8.79594C14.7285 8.65247 14.5699 8.56569 14.3995 8.56569V9.06569ZM10.9091 19.8105L16.7651 8.29054L15.8737 7.83739L10.0177 19.3574L10.9091 19.8105ZM4.1617 8.29054L10.0177 19.8105L10.9091 19.3574L5.05314 7.83739L4.1617 8.29054ZM16.3194 7.56396H4.60742V8.56396H16.3194V7.56396ZM10.4835 16.5787V9.06569H9.48346V16.5787H10.4835ZM6.07322 9.27464L9.52922 16.7877L10.4377 16.3698L6.98171 8.85673L6.07322 9.27464ZM9.98346 8.56569H6.52746V9.56569H9.98346V8.56569ZM11.4435 16.5787V9.06569H10.4435V16.5787H11.4435ZM13.9452 8.85673L10.4892 16.3698L11.3977 16.7877L14.8537 9.27464L13.9452 8.85673ZM10.9435 9.56569H14.3995V8.56569H10.9435V9.56569Z" fill="#441F00" mask="url(#path-10-outside-1_2091_292)"/>
<defs>
<linearGradient id="paint0_linear_2091_292" x1="10.5011" y1="23.9995" x2="10.5011" y2="0.192017" gradientUnits="userSpaceOnUse">
<stop stop-color="#9C3600"/>
<stop offset="0.04" stop-color="#A44401"/>
<stop offset="0.25" stop-color="#CD8909"/>
<stop offset="0.4" stop-color="#E7B40D"/>
<stop offset="0.48" stop-color="#F1C40F"/>
<stop offset="0.53" stop-color="#F2C615"/>
<stop offset="0.6" stop-color="#F3CC25"/>
<stop offset="0.67" stop-color="#F7D53F"/>
<stop offset="0.75" stop-color="#FBE363"/>
<stop offset="0.81" stop-color="#FFF088"/>
<stop offset="1" stop-color="#FFF8D6"/>
</linearGradient>
<linearGradient id="paint1_linear_2091_292" x1="10.4634" y1="19.5837" x2="10.4634" y2="8.06396" gradientUnits="userSpaceOnUse">
<stop stop-color="#9C3600"/>
<stop offset="0.04" stop-color="#A44401"/>
<stop offset="0.25" stop-color="#CD8909"/>
<stop offset="0.4" stop-color="#E7B40D"/>
<stop offset="0.48" stop-color="#F1C40F"/>
<stop offset="0.53" stop-color="#F2C615"/>
<stop offset="0.6" stop-color="#F3CC25"/>
<stop offset="0.67" stop-color="#F7D53F"/>
<stop offset="0.75" stop-color="#FBE363"/>
<stop offset="0.81" stop-color="#FFF088"/>
<stop offset="1" stop-color="#FFF8D6"/>
</linearGradient>
</defs>
</svg>

<?xml version="1.0" encoding="utf-8"?>
<!-- Generator: Adobe Illustrator 27.1.1, SVG Export Plug-In . SVG Version: 6.00 Build 0)  -->
<svg version="1.1" id="Слой_1" xmlns="http://www.w3.org/2000/svg" xmlns:xlink="http://www.w3.org/1999/xlink" x="0px" y="0px"
	 viewBox="0 0 21 24" style="enable-background:new 0 0 21 24;" xml:space="preserve">
<style type="text/css">
	.st0{fill:url(#SVGID_1_);}
	.st1{fill:#625A65;}
	.st2{fill:#291D29;}
	.st3{fill:#201D28;}
	.st4{fill:#756370;}
	.st5{fill:#352331;}
	.st6{fill:#413543;}
	.st7{fill:#441F00;}
	.st8{fill-rule:evenodd;clip-rule:evenodd;fill:url(#SVGID_00000040554779388718155560000008308126994387063732_);}
	.st9{fill:#FFFFFF;filter:url(#Adobe_OpacityMaskFilter);}
	.st10{fill-rule:evenodd;clip-rule:evenodd;}
	.st11{mask:url(#path-10-outside-1_2091_292_00000122696928137962045290000010409662442447339440_);fill:#441F00;}
</style>
<linearGradient id="SVGID_1_" gradientUnits="userSpaceOnUse" x1="10.501" y1="1.276" x2="10.501" y2="25.084" gradientTransform="matrix(1 0 0 -1 0 25.276)">
	<stop  offset="0" style="stop-color:#9C3600"/>
	<stop  offset="4.000000e-02" style="stop-color:#A44401"/>
	<stop  offset="0.25" style="stop-color:#CD8909"/>
	<stop  offset="0.4" style="stop-color:#E7B40D"/>
	<stop  offset="0.48" style="stop-color:#F1C40F"/>
	<stop  offset="0.53" style="stop-color:#F2C615"/>
	<stop  offset="0.6" style="stop-color:#F3CC25"/>
	<stop  offset="0.67" style="stop-color:#F7D53F"/>
	<stop  offset="0.75" style="stop-color:#FBE363"/>
	<stop  offset="0.81" style="stop-color:#FFF088"/>
	<stop  offset="1" style="stop-color:#FFF8D6"/>
</linearGradient>
<path class="st0" d="M10.5,0.2l10.3,6V18l-10.3,6L0.2,18V6.1L10.5,0.2z"/>
<path class="st1" d="M10.5,1.3l0,10.6L1.3,6.6L10.5,1.3z"/>
<path class="st2" d="M10.5,11.9l-9.1,5.3V6.6L10.5,11.9z"/>
<path class="st3" d="M10.5,11.9l0,10.6l-9.1-5.3L10.5,11.9z"/>
<path class="st4" d="M10.5,1.3l9.1,5.3l-9.1,5.3V1.3z"/>
<path class="st5" d="M10.5,11.9l9.1,5.3l-9.1,5.3V11.9z"/>
<path class="st6" d="M10.5,11.9l9.1-5.3v10.6L10.5,11.9z"/>
<path class="st7" d="M10.5,0.6L11,0.9L19.9,6l0.5,0.3v11.4L19.9,18L11,23.1l-0.5,0.3L10,23.1L1.1,18l-0.5-0.3V6.3L1.1,6L10,0.9
	L10.5,0.6z M10.5,0c-0.1,0-0.2,0-0.3,0.1L9.7,0.4L0.8,5.5L0.3,5.8C0.2,5.8,0.1,5.9,0.1,6C0,6.1,0,6.2,0,6.3v11.4
	c0,0.1,0,0.2,0.1,0.3c0.1,0.1,0.1,0.2,0.2,0.2l0.5,0.3l8.9,5.1l0.5,0.3c0.1,0.1,0.2,0.1,0.3,0.1c0.1,0,0.2,0,0.3-0.1l0.5-0.3
	l8.9-5.1l0.5-0.3c0.1-0.1,0.2-0.1,0.2-0.2c0.1-0.1,0.1-0.2,0.1-0.3V6.3c0-0.1,0-0.2-0.1-0.3c-0.1-0.1-0.1-0.2-0.2-0.2l-0.5-0.3
	l-8.9-5.1l-0.5-0.3C10.7,0,10.6,0,10.5,0L10.5,0z"/>
<path class="st7" d="M10.5,1.9L11,2.1l8,4.6L19.4,7v10.2l-0.4,0.3l-8,4.6l-0.4,0.3l-0.4-0.3l-8-4.6l-0.4-0.3V7l0.4-0.3l8-4.6
	L10.5,1.9z M10.5,1.3c-0.1,0-0.2,0-0.3,0.1L9.8,1.7l-8,4.6L1.4,6.5c-0.1,0-0.1,0.1-0.2,0.2c0,0.1-0.1,0.2-0.1,0.3v10.2
	c0,0.1,0,0.2,0.1,0.3c0,0.1,0.1,0.1,0.2,0.2l0.4,0.3l8,4.6l0.4,0.3c0.1,0,0.2,0.1,0.3,0.1c0.1,0,0.2,0,0.3-0.1l0.4-0.3l8-4.6
	l0.4-0.3c0.1,0,0.1-0.1,0.2-0.2c0-0.1,0.1-0.2,0.1-0.3V7c0-0.1,0-0.2-0.1-0.3s-0.1-0.1-0.2-0.2l-0.4-0.3l-8-4.6l-0.4-0.3
	C10.7,1.4,10.6,1.3,10.5,1.3L10.5,1.3z"/>
<linearGradient id="SVGID_00000061430418476821683990000006135004802271028145_" gradientUnits="userSpaceOnUse" x1="10.4634" y1="5.692" x2="10.4634" y2="17.212" gradientTransform="matrix(1 0 0 -1 0 25.276)">
	<stop  offset="0" style="stop-color:#9C3600"/>
	<stop  offset="4.000000e-02" style="stop-color:#A44401"/>
	<stop  offset="0.25" style="stop-color:#CD8909"/>
	<stop  offset="0.4" style="stop-color:#E7B40D"/>
	<stop  offset="0.48" style="stop-color:#F1C40F"/>
	<stop  offset="0.53" style="stop-color:#F2C615"/>
	<stop  offset="0.6" style="stop-color:#F3CC25"/>
	<stop  offset="0.67" style="stop-color:#F7D53F"/>
	<stop  offset="0.75" style="stop-color:#FBE363"/>
	<stop  offset="0.81" style="stop-color:#FFF088"/>
	<stop  offset="1" style="stop-color:#FFF8D6"/>
</linearGradient>
<path style="fill-rule:evenodd;clip-rule:evenodd;fill:url(#SVGID_00000061430418476821683990000006135004802271028145_);" d="
	M16.3,8.1l-5.9,11.5L4.6,8.1H16.3z M10,9.1v7.5L6.5,9.1H10z M10.9,9.1v7.5l3.5-7.5H10.9z"/>
<defs>
	<filter id="Adobe_OpacityMaskFilter" filterUnits="userSpaceOnUse" x="4.1" y="7.6" width="12.7" height="12.5">
		<feColorMatrix  type="matrix" values="1 0 0 0 0  0 1 0 0 0  0 0 1 0 0  0 0 0 1 0"/>
	</filter>
</defs>
<mask maskUnits="userSpaceOnUse" x="4.1" y="7.6" width="12.7" height="12.5" id="path-10-outside-1_2091_292_00000122696928137962045290000010409662442447339440_">
	<rect x="3.6" y="7.1" class="st9" width="14" height="14"/>
	<path class="st10" d="M16.3,8.1l-5.9,11.5L4.6,8.1H16.3z M10,9.1v7.5L6.5,9.1H10z M10.9,9.1v7.5l3.5-7.5H10.9z"/>
</mask>
<path class="st11" d="M10.5,19.6L10,19.8c0.1,0.2,0.3,0.3,0.4,0.3s0.4-0.1,0.4-0.3L10.5,19.6z M16.3,8.1l0.4,0.2
	c0.1-0.2,0.1-0.3,0-0.5c-0.1-0.1-0.3-0.2-0.4-0.2V8.1z M4.6,8.1V7.6c-0.2,0-0.3,0.1-0.4,0.2C4.1,8,4.1,8.1,4.2,8.3L4.6,8.1z
	 M10,16.6l-0.5,0.2c0.1,0.2,0.3,0.3,0.6,0.3c0.2-0.1,0.4-0.3,0.4-0.5H10z M10,9.1h0.5c0-0.3-0.2-0.5-0.5-0.5V9.1z M6.5,9.1V8.6
	c-0.2,0-0.3,0.1-0.4,0.2C6,8.9,6,9.1,6.1,9.3L6.5,9.1z M10.9,16.6h-0.5c0,0.2,0.2,0.4,0.4,0.5c0.2,0.1,0.5-0.1,0.6-0.3L10.9,16.6z
	 M10.9,9.1V8.6c-0.3,0-0.5,0.2-0.5,0.5H10.9z M14.4,9.1l0.5,0.2c0.1-0.2,0.1-0.3,0-0.5c-0.1-0.1-0.3-0.2-0.4-0.2V9.1z M10.9,19.8
	l5.9-11.5l-0.9-0.5L10,19.4L10.9,19.8z M4.2,8.3L10,19.8l0.9-0.5L5.1,7.8L4.2,8.3z M16.3,7.6H4.6v1h11.7V7.6z M10.5,16.6V9.1h-1v7.5
	H10.5z M6.1,9.3l3.5,7.5l0.9-0.4L7,8.9L6.1,9.3z M10,8.6H6.5v1H10V8.6z M11.4,16.6V9.1h-1v7.5H11.4z M13.9,8.9l-3.5,7.5l0.9,0.4
	l3.5-7.5L13.9,8.9z M10.9,9.6h3.5v-1h-3.5V9.6z"/>
</svg>
